static/images/pieces/xiangqi/wikim/red_elephant.svg

<?xml version="1.0" encoding="UTF-8" standalone="no"?>
<svg
   width="100"
   height="100"
   version="1.1"
   id="svg1320"
   sodipodi:docname="red_elephant.svg"
   viewBox="-6 -6 112 112"
   inkscape:version="1.2.2 (b0a8486541, 2022-12-01)"
   xmlns:inkscape="http://www.inkscape.org/namespaces/inkscape"
   xmlns:sodipodi="http://sodipodi.sourceforge.net/DTD/sodipodi-0.dtd"
   xmlns="http://www.w3.org/2000/svg"
   xmlns:svg="http://www.w3.org/2000/svg"
   xmlns:rdf="http://www.w3.org/1999/02/22-rdf-syntax-ns#"
   xmlns:cc="http://creativecommons.org/ns#"
   xmlns:dc="http://purl.org/dc/elements/1.1/">
  <defs
     id="defs1324" />
  <sodipodi:namedview
     id="namedview1322"
     pagecolor="#ffffff"
     bordercolor="#666666"
     borderopacity="1.0"
     inkscape:showpageshadow="2"
     inkscape:pageopacity="0.0"
     inkscape:pagecheckerboard="0"
     inkscape:deskcolor="#d1d1d1"
     showgrid="false"
     inkscape:zoom="2.36"
     inkscape:cx="50.211864"
     inkscape:cy="50"
     inkscape:window-width="1920"
     inkscape:window-height="1022"
     inkscape:window-x="0"
     inkscape:window-y="0"
     inkscape:window-maximized="1"
     inkscape:current-layer="svg1320" />
  <title
     id="title1312">相</title>
  <!-- 此字型為全字庫正楷體，中華民國國家發展委員會，CNS11643中文標準交換碼全字庫網站，https://www.cns11643.gov.tw/。 -->
  <circle
     r="48.5"
     cx="50"
     cy="50"
     stroke-width="3"
     stroke="#000000"
     fill="#ffddaa"
     id="circle1314" />
  <circle
     r="43.5"
     cx="50"
     cy="50"
     stroke-width="3"
     stroke="#cc0000"
     fill="none"
     id="circle1316" />
  <path
     transform="translate(15,14)"
     fill="#cc0000"
     d="m 21.6,6.3 c -0.7,0.5 -0.8,1.7 -0.1,4 0.4,1.2 0.5,3.4 0.5,7.7 v 6.1 l -0.9,0.2 c -0.6,0.1 -3.3,0.4 -6,0.8 -2.8,0.3 -5.2,0.8 -5.5,1 -0.9,0.6 -0.3,1.8 1.4,2.6 1.6,0.7 3.8,0.9 7.7,0.4 1.1,-0.2 2,-0.2 2.1,-0.1 0.2,0.3 -5,8.8 -6.6,10.8 -1.7,2.2 -6.8,7.4 -8.6,8.7 -1.1,0.8 -1.4,1.2 -1.3,1.9 0.1,0.7 0.3,0.9 1,0.8 1.4,-0.1 5.7,-2.3 8.4,-4.3 2.1,-1.5 3.3,-2.8 7.2,-7.9 l 0.8,-1 -0.2,3.5 c -0.3,5.4 -0.8,10.2 -1.4,13.4 -0.3,1.6 -0.5,3.6 -0.4,4.4 0.2,2.1 1.6,4.8 2.8,5.4 0.8,0.5 1,0.5 1.8,-0.3 1.7,-1.6 1.9,-3.1 2.1,-15.8 0.2,-6.5 0.4,-11.8 0.6,-11.7 0.1,0.1 0.5,0.9 0.9,1.7 0.9,1.9 3.3,4.1 4.5,4.1 2,0 3.1,-3.2 1.7,-5.2 -0.7,-1 -4.4,-3.4 -5.7,-3.7 -1.6,-0.4 -1.8,-0.8 -1.5,-3.5 0.2,-2.3 0.3,-2.5 1.1,-2.6 2.3,-0.3 6.9,-1.6 7.4,-2.1 0.9,-0.7 0.8,-1.2 -0.1,-2.1 -1.3,-1.1 -3.8,-1.7 -5.7,-1.2 -2.7,0.7 -2.6,1 -2.1,-4 0.2,-2.5 0.6,-5.5 0.9,-6.7 C 28.8,9.5 28.8,9.4 28,8.6 27,7.5 24,5.9 22.9,6 22.5,6 21.9,6.1 21.6,6.3 M 52.4,17 c -3.5,1.2 -8,2 -11.9,2 -1.9,0.1 -3.5,0.2 -3.8,0.5 -0.2,0.2 -0.1,1 0.5,2.6 0.7,2.1 0.8,2.6 0.7,11 0,5.7 -0.3,10.4 -0.6,13.1 -1,7.6 -1.1,8.8 -0.4,10.2 0.8,1.6 1.9,2.7 2.7,2.7 0.7,0 1.7,-1 1.7,-1.8 0,-0.3 0.1,-0.6 0.3,-0.7 0.2,-0.2 2.6,-0.4 5.3,-0.6 2.8,-0.2 5.3,-0.5 5.6,-0.5 0.5,-0.2 0.9,0.4 1.6,2.1 1.2,2.8 1.9,3.4 3.3,2.9 1.2,-0.4 2.3,-1.8 3.5,-4 0.9,-1.9 0.9,-3.9 0.1,-10.1 -0.7,-6.4 -0.5,-21 0.4,-23.3 1,-2.7 1,-2.7 -0.2,-3.9 -1.7,-1.5 -4.5,-3.1 -5.6,-3.1 -0.4,0.1 -1.9,0.4 -3.2,0.9 m 2.1,4.8 c 0.3,0.2 0.4,1.7 0.4,4 v 3.6 l -1.1,-0.2 c -0.7,-0.1 -1.8,0 -2.6,0.2 -3.2,0.9 -7.9,1.7 -8.3,1.4 -0.1,-0.2 -0.2,-1.9 0,-4.2 l 0.2,-3.8 1.4,-0.4 c 3.6,-1 9.3,-1.3 10,-0.6 m 0.4,14.9 v 3.4 l -2,-0.1 c -1.3,-0.1 -3,0.1 -4.8,0.5 -2.5,0.7 -4.2,0.9 -5.3,0.8 -0.3,0 -0.5,-0.8 -0.5,-2.6 0,-3.4 0.2,-3.7 1.7,-3.7 1.1,0 8.9,-1.3 9.7,-1.6 1.1,-0.4 1.2,-0.1 1.2,3.3 m -0.1,8.4 c -0.1,0.7 -0.2,2.3 -0.2,3.6 0,1.9 -0.1,2.3 -0.5,2.2 -0.3,-0.1 -2.8,0.1 -5.7,0.5 -2.9,0.4 -5.5,0.7 -5.8,0.5 -0.5,-0.1 -0.6,-0.7 -0.6,-2.8 0,-1.5 0.1,-2.9 0.3,-3.1 0.1,-0.2 1.4,-0.5 2.8,-0.6 1.5,-0.2 4,-0.6 5.7,-0.9 4.4,-1 4.3,-1 4,0.6"
     id="path1318" />
  <metadata
     id="metadata12237">
    <rdf:RDF>
      <cc:Work
         rdf:about="">
        <dc:title>相</dc:title>
      </cc:Work>
    </rdf:RDF>
  </metadata>
</svg>

<?xml version="1.0" encoding="UTF-8"?>
<svg width="100" height="100"
	xmlns="http://www.w3.org/2000/svg">
	<title>相</title>
	<!-- 此字型為全字庫正楷體，中華民國國家發展委員會，CNS11643中文標準交換碼全字庫網站，https://www.cns11643.gov.tw/。 -->
	<circle r="48.5" cx="50" cy="50" stroke-width="3" stroke="#000" fill="#fda"/>
	<circle r="43.5" cx="50" cy="50" stroke-width="3" stroke="#c00" fill="none"/>
	<path transform="translate(15,14)" fill="#c00" d="M21.6 6.3 C20.9 6.8,20.8 8.0,21.5 10.3 C21.9 11.5,22.0 13.7,22.0 18.0 L22.0 24.1 21.1 24.3 C20.5 24.4,17.8 24.7,15.1 25.1 C12.3 25.4,9.9 25.9,9.6 26.1 C8.7 26.7,9.3 27.9,11.0 28.7 C12.6 29.4,14.8 29.6,18.7 29.1 C19.8 28.9,20.7 28.9,20.8 29.0 C21.0 29.3,15.8 37.8,14.2 39.8 C12.5 42.0,7.4 47.2,5.6 48.5 C4.5 49.3,4.2 49.7,4.3 50.4 C4.4 51.1,4.6 51.3,5.3 51.2 C6.7 51.1,11.0 48.9,13.7 46.9 C15.8 45.4,17.0 44.1,20.9 39.0 L21.7 38.0 21.5 41.5 C21.2 46.9,20.7 51.7,20.1 54.9 C19.8 56.5,19.6 58.5,19.7 59.3 C19.9 61.4,21.3 64.1,22.5 64.7 C23.3 65.2,23.5 65.2,24.3 64.4 C26.0 62.8,26.2 61.3,26.4 48.6 C26.6 42.1,26.8 36.8,27.0 36.9 C27.1 37.0,27.5 37.8,27.9 38.6 C28.8 40.5,31.2 42.7,32.4 42.7 C34.4 42.7,35.5 39.5,34.1 37.5 C33.4 36.5,29.7 34.1,28.4 33.8 C26.8 33.4,26.6 33.0,26.9 30.3 C27.1 28.0,27.2 27.8,28.0 27.7 C30.3 27.4,34.9 26.1,35.4 25.6 C36.3 24.9,36.2 24.4,35.3 23.5 C34.0 22.4,31.5 21.8,29.6 22.3 C26.9 23.0,27.0 23.3,27.5 18.3 C27.7 15.8,28.1 12.8,28.4 11.6 C28.8 9.5,28.8 9.4,28.0 8.6 C27.0 7.5,24.0 5.9,22.9 6.0 C22.5 6.0,21.9 6.1,21.6 6.3 M52.4 17.0 C48.9 18.2,44.4 19.0,40.5 19.0 C38.6 19.1,37.0 19.2,36.7 19.5 C36.5 19.7,36.6 20.5,37.2 22.1 C37.9 24.2,38.0 24.7,37.9 33.1 C37.9 38.8,37.6 43.5,37.3 46.2 C36.3 53.8,36.2 55.0,36.9 56.4 C37.7 58.0,38.8 59.1,39.6 59.1 C40.3 59.1,41.3 58.1,41.3 57.3 C41.3 57.0,41.4 56.7,41.6 56.6 C41.8 56.4,44.2 56.2,46.9 56.0 C49.7 55.8,52.2 55.5,52.5 55.5 C53.0 55.3,53.4 55.9,54.1 57.6 C55.3 60.4,56.0 61.0,57.4 60.5 C58.6 60.1,59.7 58.7,60.9 56.5 C61.8 54.6,61.8 52.6,61.0 46.4 C60.3 40.0,60.5 25.4,61.4 23.1 C62.4 20.4,62.4 20.4,61.2 19.2 C59.5 17.7,56.7 16.1,55.6 16.1 C55.2 16.2,53.7 16.5,52.4 17.0 M54.5 21.8 C54.8 22.0,54.9 23.5,54.9 25.8 L54.9 29.4 53.8 29.2 C53.1 29.1,52.0 29.2,51.2 29.4 C48.0 30.3,43.3 31.1,42.9 30.8 C42.8 30.6,42.7 28.9,42.9 26.6 L43.1 22.8 44.5 22.4 C48.1 21.4,53.8 21.1,54.5 21.8 M54.9 36.7 L54.9 40.1 52.9 40.0 C51.6 39.9,49.9 40.1,48.1 40.5 C45.6 41.2,43.9 41.4,42.8 41.3 C42.5 41.3,42.3 40.5,42.3 38.7 C42.3 35.3,42.5 35.0,44.0 35.0 C45.1 35.0,52.9 33.7,53.7 33.4 C54.8 33.0,54.9 33.3,54.9 36.7 M54.8 45.1 C54.7 45.8,54.6 47.4,54.6 48.7 C54.6 50.6,54.5 51.0,54.1 50.9 C53.8 50.8,51.3 51.0,48.4 51.4 C45.5 51.8,42.9 52.1,42.6 51.9 C42.1 51.8,42.0 51.2,42.0 49.1 C42.0 47.6,42.1 46.2,42.3 46.0 C42.4 45.8,43.7 45.5,45.1 45.4 C46.6 45.2,49.1 44.8,50.8 44.5 C55.2 43.5,55.1 43.5,54.8 45.1 "/>
</svg>
